X: 1377
T: Dancing Pennies
B: australian traditional tunes wiki
M:3/4
L:1/8
R: Waltz
Q: 1/4=100
K:C
V:1 
|:z2|"C"e3dc2|g3fe2|"G7"f4d2|d6|f3ed2|a3gf2|"C"g4e2|e2f2g2|
"F"a3fa2|c'3ba2|"C"g6|e4e2|e2d2c2|g3fe2|"G7"d6-|d4:||
|:g2|"C"g3fe2|e2d2c2|"G7"B2g2g2|"F"A2f2f2|"C"G2e2e2|"G7"A2d2B2|"C"c6-|c4:|
z2|"C"c3Bcd|e3def|g3fg2|"F"c'2b2a2|"C"g3fe2|"D7"e2d2c2|"G"d6-|"G7"d4ef|
"C"g2f2e2|e2d2c2|"G7"B2g2g2|"F"A2f2f2|"C"G2e2e2|"G7"A2d2B2|"C"c6-|c4z2||
% abcbook-tune_id 6342d53a6523ad6f07a61e64


% abcbook-boost 0
% abcbook-tablature 
% abcbook-transpose 
% abcbook-lastupdated 1665324361945
% abcbook-soundfonts 
% abcbook-repeats 1
% NFF Book 2016

